src/assets/icons/muscles_parts/back_top.svg

<svg id="Layer_2" enable-background="new 0 0 512 512" viewBox="0 0 512 512" xmlns="http://www.w3.org/2000/svg"><g><g><path d="m254.846 507.294c-53.055 0-113.206-35.77-115.74-37.292-1.165-.699-1.895-1.942-1.938-3.301l-1.393-43.587c-.008-.259.009-.519.051-.773l8.338-50.958c2.197-13.428-1.43-26.998-9.953-37.231-5.458-6.555-8.987-12.426-11.137-16.613l-18.654 24.101c.594 7.312 1.471 36.451-17.722 69.353-.614 1.053-1.674 1.768-2.88 1.942-1.206.181-2.426-.208-3.313-1.042l-54.462-51.153c-.805-.757-1.262-1.812-1.262-2.916v-40.857c0-.048.001-.095.002-.143 1.796-50.276 28.202-74.486 36.112-80.635-1.533-9.755-5.848-45.496 6.415-80.234 12.891-36.517 57.437-52.173 62.787-53.936l71.667-42.661 6.782-44.589c.255-1.675 1.537-3.008 3.201-3.327l22.57-4.328c13.614-2.609 27.427-2.655 41.056-.133l24.079 4.456c1.675.311 2.97 1.647 3.227 3.332l6.782 44.589 71.667 42.661c5.35 1.763 49.896 17.419 62.787 53.936 12.374 35.051 6.542 69.822 4.644 78.962 7.206 7.366 34.529 38.557 36.35 89.554.001.047.002.095.002.143v33.211c0 1.085-.44 2.123-1.22 2.876l-52.929 51.152c-.883.854-2.106 1.25-3.327 1.087-1.217-.169-2.289-.887-2.908-1.947-19.193-32.901-18.316-62.04-17.722-69.353l-18.653-24.102c-2.15 4.188-5.678 10.059-11.137 16.614-8.522 10.233-12.149 23.804-9.953 37.231l8.339 50.958c.042.255.059.515.051.773l-1.394 43.587c-.044 1.373-.79 2.628-1.976 3.323-2.597 1.522-64.205 37.27-117.236 37.27z" fill="#484f69"/></g><path d="m250.487 26.421v40.573c0 11.104-4.525 21.699-12.471 29.202l-6.777 6.398 7.004 5.929c7.752 6.562 12.244 16.354 12.244 26.69v168.175c0 3.098-3.995 4.176-5.469 1.476l-53.144-77.005c-1.911-3.499-2.69-7.526-2.253-11.515 2.17-19.774 3.316-83.149-42.294-101.898-4.63-1.903-4.992-8.496-.564-10.854l59.534-31.704 34.673-48.678c3.012-4.229 9.517-2.034 9.517 3.211z" fill="#FF4858"/><g><path d="m114.29 114.779c6.027-2.874 12.982-3.088 19.236-.746 10.423 3.903 26.356 10.267 34.07 26.796 5.011 10.738-48.043 6.593-53.194 46.803-.703 5.487-3.54 10.492-7.894 13.904-3.472 2.721-4.255 2.722-27.78 23.883-3.378 3.039-8.786 1.387-9.859-3.029-5.539-22.785-12.628-79.931 45.421-107.611z" fill="#9fabce"/></g><g><path d="m120.025 198.948c-.044-17.535 10.978-33.187 27.502-39.054l19.393-6.886c4.643-2.211 9.247 1.088 10.362 6.109 3.087 13.9 6.93 31.297 3.483 58.609-.469 3.714-3.018 6.843-6.564 8.045l-45.876 15.542c-4.232 1.434-8.584-1.819-8.406-6.284.149-3.725.146-20.475.106-36.081z" fill="#9fabce"/></g><g><path d="m130.69 246.451c-4.748 1.043-8.065 5.325-7.979 10.186.19 10.723 1.34 29.321 6.515 44.641 11.65 34.484 38.777 59.506 41.401 85.549.162 1.606 2.013 2.425 3.328 1.488l59.628-67.301c4.358-3.105 5.61-9.032 2.88-13.634l-49.51-70.957c-2.853-3.676-7.737-5.103-12.118-3.535-10.47 3.75-30.038 10.465-44.145 13.563z" fill="#9fabce"/></g><g><path d="m87.378 233.651c-5.229 11.56-12.506 29.993-14.433 46.643-.855 7.391-3.67 14.42-8.408 20.156-2.914 3.527-5.86 8.533-7.432 15.346-2.143 9.287-8.72 17.768-14.045 23.396-3.105 3.282-8.639 1.423-9.137-3.067-2.361-21.294-1.819-71.847 48.037-106.97 3.026-2.132 6.943 1.123 5.418 4.496z" fill="#9fabce"/></g><g><path d="m109.61 212.481c1.953-2.366 5.8-.806 5.555 2.252-1.183 14.768-2.758 43.298.873 60.546 4.187 19.889-21.446 55.068-40.784 69.046-3.613 2.612-8.409-1.107-6.816-5.272l5.66-14.799c4.268-11.161 6.601-22.989 6.672-34.938.101-17.255 4.463-47.31 28.84-76.835z" fill="#9fabce"/></g><g><path d="m250.487 326.56v159.099c0 4.211-4.761 6.518-7.908 3.832l-17.475-14.912c-10.574-9.023-23.873-13.961-37.601-13.961-6.023 0-11.003-4.836-11.359-11.032l-2.501-43.492c-.297-5.161 2-10.117 6.082-13.123l63.126-70.459c3.196-2.354 7.636 0 7.636 4.048z" fill="#9fabce"/></g><g><path d="m154.834 364.861s11.093 45.266 15.087 88.54c.308 3.334-2.865 6.013-6.203 6.285l-8.569.861c-3.57.291-6.749-2.251-7.25-5.797l-1.822-12.884c-1.613-11.401-1.074-23.003 1.588-34.205z" fill="#9fabce"/></g><path d="m258.94 26.421v40.573c0 11.104 4.525 21.699 12.471 29.202l6.777 6.398-7.004 5.929c-7.752 6.562-12.244 16.354-12.244 26.69v168.175c0 3.098 3.995 4.176 5.469 1.476l53.144-77.005c1.911-3.499 2.69-7.526 2.253-11.515-2.17-19.774-3.316-83.149 42.294-101.898 4.63-1.903 4.992-8.496.563-10.854l-59.533-31.704-34.672-48.678c-3.012-4.229-9.518-2.034-9.518 3.211z" fill="#FF4858"/><g><path d="m395.138 114.779c-6.027-2.874-12.982-3.088-19.236-.746-10.423 3.903-26.356 10.267-34.07 26.796-5.001 10.716 49.38 7.184 53.425 46.654.575 5.606 3.404 10.745 7.853 14.203 3.317 2.578 4.502 2.967 27.589 23.733 3.378 3.039 8.786 1.387 9.859-3.029 5.539-22.785 12.628-79.931-45.42-107.611z" fill="#9fabce"/></g><g><path d="m389.402 198.948c.044-17.535-10.978-33.187-27.502-39.054l-19.393-6.886c-4.644-2.211-9.247 1.088-10.362 6.109-3.086 13.9-6.93 31.297-3.483 58.609.469 3.714 3.018 6.843 6.564 8.045l45.876 15.542c4.232 1.434 8.585-1.819 8.406-6.284-.149-3.725-.145-20.475-.106-36.081z" fill="#9fabce"/></g><g><path d="m378.737 246.451c4.748 1.043 8.065 5.325 7.979 10.186-.19 10.723-1.34 29.321-6.515 44.641-11.65 34.484-38.777 59.506-41.401 85.549-.162 1.606-2.013 2.425-3.328 1.488l-59.628-66.301c-4.358-3.105-5.61-9.032-2.88-13.634l49.51-71.957c2.853-3.676 7.737-5.103 12.118-3.535 10.47 3.75 30.039 10.465 44.145 13.563z" fill="#9fabce"/></g><g><path d="m422.05 233.651c5.229 11.56 12.506 29.993 14.433 46.643.855 7.391 3.67 14.42 8.408 20.156 2.914 3.527 5.86 8.533 7.432 15.346 2.143 9.287 8.72 17.768 14.045 23.396 3.105 3.282 8.639 1.423 9.137-3.067 2.361-21.294 1.819-71.847-48.037-106.97-3.027-2.132-6.944 1.123-5.418 4.496z" fill="#9fabce"/></g><g><path d="m399.817 212.481c-1.953-2.366-5.8-.806-5.555 2.252 1.183 14.768 2.758 43.298-.873 60.546-4.187 19.889 21.446 55.068 40.784 69.046 3.613 2.612 8.409-1.107 6.816-5.272l-5.66-14.799c-4.268-11.161-6.601-22.989-6.672-34.938-.101-17.255-4.463-47.31-28.84-76.835z" fill="#9fabce"/></g><g><path d="m258.94 326.56v159.099c0 4.211 4.761 6.518 7.908 3.832l17.475-14.912c10.574-9.023 23.873-13.961 37.602-13.961 6.023 0 11.003-4.836 11.359-11.032l2.501-43.492c.297-5.161-2-10.117-6.082-13.123l-63.126-70.459c-3.196-2.354-7.637 0-7.637 4.048z" fill="#9fabce"/></g><g><path d="m354.593 364.861s-11.093 45.266-15.087 88.54c-.308 3.334 2.865 6.013 6.203 6.285l8.569.861c3.57.291 6.749-2.251 7.25-5.797l1.822-12.884c1.613-11.401 1.074-23.003-1.588-34.205z" fill="#9fabce"/></g></g></svg>

<svg viewBox="0 0 512 512" fill="none" xmlns="http://www.w3.org/2000/svg">
<path d="M254.846 507.294C201.791 507.294 141.64 471.524 139.106 470.002C137.941 469.303 137.211 468.06 137.168 466.701L135.775 423.114C135.767 422.855 135.784 422.595 135.826 422.341L144.164 371.383C146.361 357.955 142.734 344.385 134.211 334.152C128.753 327.597 125.224 321.726 123.074 317.539L104.42 341.64C105.014 348.952 105.891 378.091 86.698 410.993C86.084 412.046 85.024 412.761 83.818 412.935C82.612 413.116 81.392 412.727 80.505 411.893L26.043 360.74C25.238 359.983 24.781 358.928 24.781 357.824V316.967C24.781 316.919 24.782 316.872 24.783 316.824C26.579 266.548 52.985 242.338 60.895 236.189C59.362 226.434 55.047 190.693 67.31 155.955C80.201 119.438 124.747 103.782 130.097 102.019L201.764 59.358L208.546 14.769C208.801 13.094 210.083 11.761 211.747 11.442L234.317 7.11401C247.931 4.50501 261.744 4.45901 275.373 6.98101L299.452 11.437C301.127 11.748 302.422 13.084 302.679 14.769L309.461 59.358L381.128 102.019C386.478 103.782 431.024 119.438 443.915 155.955C456.289 191.006 450.457 225.777 448.559 234.917C455.765 242.283 483.088 273.474 484.909 324.471C484.91 324.518 484.911 324.566 484.911 324.614V357.825C484.911 358.91 484.471 359.948 483.691 360.701L430.762 411.853C429.879 412.707 428.656 413.103 427.435 412.94C426.218 412.771 425.146 412.053 424.527 410.993C405.334 378.092 406.211 348.953 406.805 341.64L388.152 317.538C386.002 321.726 382.474 327.597 377.015 334.152C368.493 344.385 364.866 357.956 367.062 371.383L375.401 422.341C375.443 422.596 375.46 422.856 375.452 423.114L374.058 466.701C374.014 468.074 373.268 469.329 372.082 470.024C369.485 471.546 307.877 507.294 254.846 507.294Z" fill="#484F69"/>
<path d="M250.487 26.421V66.994C250.487 78.098 245.962 88.693 238.016 96.196L231.239 102.594L238.243 108.523C245.995 115.085 250.487 124.877 250.487 135.213V303.388C250.487 306.486 246.492 307.564 245.018 304.864L191.874 227.859C189.963 224.36 189.184 220.333 189.621 216.344C191.791 196.57 192.937 133.195 147.327 114.446C142.697 112.543 142.335 105.95 146.763 103.592L206.297 71.888L240.97 23.21C243.982 18.981 250.487 21.176 250.487 26.421Z" fill="#FF4858"/>
<path d="M114.29 114.779C120.317 111.905 127.272 111.691 133.526 114.033C143.949 117.936 159.882 124.3 167.596 140.829C172.607 151.567 119.553 147.422 114.402 187.632C113.699 193.119 110.862 198.124 106.508 201.536C103.036 204.257 102.253 204.258 78.728 225.419C75.35 228.458 69.942 226.806 68.869 222.39C63.33 199.605 56.241 142.459 114.29 114.779Z" fill="#9FABCE"/>
<path d="M120.025 198.948C119.981 181.413 131.003 165.761 147.527 159.894L166.92 153.008C171.563 150.797 176.167 154.096 177.282 159.117C180.369 173.017 184.212 190.414 180.765 217.726C180.296 221.44 177.747 224.569 174.201 225.771L128.325 241.313C124.093 242.747 119.741 239.494 119.919 235.029C120.068 231.304 120.065 214.554 120.025 198.948Z" fill="#9FABCE"/>
<path d="M130.69 246.451C125.942 247.494 122.625 251.776 122.711 256.637C122.901 267.36 124.051 285.958 129.226 301.278C140.876 335.762 168.003 360.784 170.627 386.827C170.789 388.433 172.64 389.252 173.955 388.315L233.583 321.014C237.941 317.909 239.193 311.982 236.463 307.38L186.953 236.423C184.1 232.747 179.216 231.32 174.835 232.888C164.365 236.638 144.797 243.353 130.69 246.451Z" fill="#9FABCE"/>
<path d="M87.378 233.651C82.149 245.211 74.872 263.644 72.945 280.294C72.09 287.685 69.275 294.714 64.537 300.45C61.623 303.977 58.677 308.983 57.105 315.796C54.962 325.083 48.385 333.564 43.06 339.192C39.955 342.474 34.421 340.615 33.923 336.125C31.562 314.831 32.104 264.278 81.96 229.155C84.986 227.023 88.903 230.278 87.378 233.651Z" fill="#9FABCE"/>
<path d="M109.61 212.481C111.563 210.115 115.41 211.675 115.165 214.733C113.982 229.501 112.407 258.031 116.038 275.279C120.225 295.168 94.592 330.347 75.254 344.325C71.641 346.937 66.845 343.218 68.438 339.053L74.098 324.254C78.366 313.093 80.699 301.265 80.77 289.316C80.871 272.061 85.233 242.006 109.61 212.481Z" fill="#9FABCE"/>
<path d="M250.487 326.56V485.659C250.487 489.87 245.726 492.177 242.579 489.491L225.104 474.579C214.53 465.556 201.231 460.618 187.503 460.618C181.48 460.618 176.5 455.782 176.144 449.586L173.643 406.094C173.346 400.933 175.643 395.977 179.725 392.971L242.851 322.512C246.047 320.158 250.487 322.512 250.487 326.56Z" fill="#9FABCE"/>
<path d="M154.834 364.861C154.834 364.861 165.927 410.127 169.921 453.401C170.229 456.735 167.056 459.414 163.718 459.686L155.149 460.547C151.579 460.838 148.4 458.296 147.899 454.75L146.077 441.866C144.464 430.465 145.003 418.863 147.665 407.661L154.834 364.861Z" fill="#9FABCE"/>
<path d="M258.94 26.421V66.994C258.94 78.098 263.465 88.693 271.411 96.196L278.188 102.594L271.184 108.523C263.432 115.085 258.94 124.877 258.94 135.213V303.388C258.94 306.486 262.935 307.564 264.409 304.864L317.553 227.859C319.464 224.36 320.243 220.333 319.806 216.344C317.636 196.57 316.49 133.195 362.1 114.446C366.73 112.543 367.092 105.95 362.663 103.592L303.13 71.888L268.458 23.21C265.446 18.981 258.94 21.176 258.94 26.421Z" fill="#FF4858"/>
<path d="M395.138 114.779C389.111 111.905 382.156 111.691 375.902 114.033C365.479 117.936 349.546 124.3 341.832 140.829C336.831 151.545 391.212 148.013 395.257 187.483C395.832 193.089 398.661 198.228 403.11 201.686C406.427 204.264 407.612 204.653 430.699 225.419C434.077 228.458 439.485 226.806 440.558 222.39C446.097 199.605 453.186 142.459 395.138 114.779Z" fill="#9FABCE"/>
<path d="M389.402 198.948C389.446 181.413 378.424 165.761 361.9 159.894L342.507 153.008C337.863 150.797 333.26 154.096 332.145 159.117C329.059 173.017 325.215 190.414 328.662 217.726C329.131 221.44 331.68 224.569 335.226 225.771L381.102 241.313C385.334 242.747 389.687 239.494 389.508 235.029C389.359 231.304 389.363 214.554 389.402 198.948Z" fill="#9FABCE"/>
<path d="M378.737 246.451C383.485 247.494 386.802 251.776 386.716 256.637C386.526 267.36 385.376 285.958 380.201 301.278C368.551 335.762 341.424 360.784 338.8 386.827C338.638 388.433 336.787 389.252 335.472 388.315L275.844 322.014C271.486 318.909 270.234 312.982 272.964 308.38L322.474 236.423C325.327 232.747 330.211 231.32 334.592 232.888C345.062 236.638 364.631 243.353 378.737 246.451Z" fill="#9FABCE"/>
<path d="M422.05 233.651C427.279 245.211 434.556 263.644 436.483 280.294C437.338 287.685 440.153 294.714 444.891 300.45C447.805 303.977 450.751 308.983 452.323 315.796C454.466 325.083 461.043 333.564 466.368 339.192C469.473 342.474 475.007 340.615 475.505 336.125C477.866 314.831 477.324 264.278 427.468 229.155C424.441 227.023 420.524 230.278 422.05 233.651Z" fill="#9FABCE"/>
<path d="M399.817 212.481C397.864 210.115 394.017 211.675 394.262 214.733C395.445 229.501 397.02 258.031 393.389 275.279C389.202 295.168 414.835 330.347 434.173 344.325C437.786 346.937 442.582 343.218 440.989 339.053L435.329 324.254C431.061 313.093 428.728 301.265 428.657 289.316C428.556 272.061 424.194 242.006 399.817 212.481Z" fill="#9FABCE"/>
<path d="M258.94 326.56V485.659C258.94 489.87 263.701 492.177 266.848 489.491L284.323 474.579C294.897 465.556 308.196 460.618 321.925 460.618C327.948 460.618 332.928 455.782 333.284 449.586L335.785 406.094C336.082 400.933 333.785 395.977 329.703 392.971L266.577 322.512C263.381 320.158 258.94 322.512 258.94 326.56Z" fill="#9FABCE"/>
<path d="M354.593 364.861C354.593 364.861 343.5 410.127 339.506 453.401C339.198 456.735 342.371 459.414 345.709 459.686L354.278 460.547C357.848 460.838 361.027 458.296 361.528 454.75L363.35 441.866C364.963 430.465 364.424 418.863 361.762 407.661L354.593 364.861Z" fill="#9FABCE"/>
</svg>
